Numix-GalliumOS/48/categories/preferences-system-directory.svg

<?xml version="1.0" encoding="UTF-8" standalone="no"?>
<svg
   xmlns:dc="http://purl.org/dc/elements/1.1/"
   xmlns:cc="http://creativecommons.org/ns#"
   xmlns:rdf="http://www.w3.org/1999/02/22-rdf-syntax-ns#"
   xmlns:svg="http://www.w3.org/2000/svg"
   xmlns="http://www.w3.org/2000/svg"
   xmlns:sodipodi="http://sodipodi.sourceforge.net/DTD/sodipodi-0.dtd"
   xmlns:inkscape="http://www.inkscape.org/namespaces/inkscape"
   width="48"
   height="48"
   viewBox="0 0 38.4 38.4"
   id="svg2"
   version="1.1"
   inkscape:version="0.91 r"
   sodipodi:docname="preferences-system-directory.svg">
  <metadata
     id="metadata16">
    <rdf:RDF>
      <cc:Work
         rdf:about="">
        <dc:format>image/svg+xml</dc:format>
        <dc:type
           rdf:resource="http://purl.org/dc/dcmitype/StillImage" />
        <dc:title />
      </cc:Work>
    </rdf:RDF>
  </metadata>
  <defs
     id="defs14" />
  <sodipodi:namedview
     pagecolor="#ffffff"
     bordercolor="#666666"
     borderopacity="1"
     objecttolerance="10"
     gridtolerance="10"
     guidetolerance="10"
     inkscape:pageopacity="0"
     inkscape:pageshadow="2"
     inkscape:window-width="1680"
     inkscape:window-height="1026"
     id="namedview12"
     showgrid="true"
     inkscape:zoom="14.052817"
     inkscape:cx="23.016733"
     inkscape:cy="21.277679"
     inkscape:window-x="0"
     inkscape:window-y="24"
     inkscape:window-maximized="1"
     inkscape:current-layer="svg2">
    <inkscape:grid
       type="xygrid"
       id="grid4147" />
  </sodipodi:namedview>
  <path
     style="fill:#555555"
     inkscape:connector-curvature="0"
     id="path6"
     d="m 32,16.615536 0,5.168928 C 32,22.123797 31.636991,22.4 31.195068,22.4 l -4.790136,0 C 25.959063,22.4 25.6,22.123797 25.6,21.784464 l 0,-5.168928 C 25.6,16.276203 25.959063,16 26.404932,16 l 4.790136,0 C 31.636991,16 32,16.276203 32,16.615536 Z" />
  <path
     style="fill:#555555"
     inkscape:connector-curvature="0"
     id="path8"
     d="m 22.4,16.615536 0,5.168928 C 22.4,22.123797 22.036991,22.4 21.595068,22.4 l -4.790136,0 C 16.359063,22.4 16,22.123797 16,21.784464 l 0,-5.168928 C 16,16.276203 16.359063,16 16.804932,16 l 4.790136,0 C 22.036991,16 22.4,16.276203 22.4,16.615536 Z" />
  <path
     style="fill:#555555"
     inkscape:connector-curvature="0"
     id="path10"
     d="m 12.8,16.615536 0,5.168928 C 12.8,22.123797 12.436992,22.4 11.995068,22.4 l -4.7901359,0 C 6.7590631,22.4 6.4,22.123797 6.4,21.784464 l 0,-5.168928 C 6.4,16.276203 6.7590631,16 7.2049321,16 l 4.7901359,0 C 12.436992,16 12.8,16.276203 12.8,16.615536 Z" />
</svg>

<svg xmlns="http://www.w3.org/2000/svg" width="48" height="48" viewBox="0 0 38.4 38.4">
 <path d="m 32 16.616 0 5.169 c 0 0.339 -0.363 0.616 -0.805 0.616 l -4.79 0 c -0.446 0 -0.805 -0.276 -0.805 -0.616 l 0 -5.169 c 0 -0.339 0.359 -0.616 0.805 -0.616 l 4.79 0 c 0.442 0 0.805 0.276 0.805 0.616" style="fill:#555"/>
 <path d="m 22.4 16.616 0 5.169 c 0 0.339 -0.363 0.616 -0.805 0.616 l -4.79 0 c -0.446 0 -0.805 -0.276 -0.805 -0.616 l 0 -5.169 c 0 -0.339 0.359 -0.616 0.805 -0.616 l 4.79 0 c 0.442 0 0.805 0.276 0.805 0.616" style="fill:#555"/>
 <path d="m 12.8 16.616 0 5.169 c 0 0.339 -0.363 0.616 -0.805 0.616 l -4.79 0 c -0.446 0 -0.805 -0.276 -0.805 -0.616 l 0 -5.169 c 0 -0.339 0.359 -0.616 0.805 -0.616 l 4.79 0 c 0.442 0 0.805 0.276 0.805 0.616" style="fill:#555"/>
</svg>
